localPackages/DesignSystem/Sources/DesignSystem/Resources/Assets.xcassets/IconSet/ic-fire.imageset/ic-fire.svg

<svg width="24" height="24" viewBox="0 0 24 24" fill="none" xmlns="http://www.w3.org/2000/svg">
<g id="ic-fire">
<path id="Icon" fill-rule="evenodd" clip-rule="evenodd" d="M7.44956 10.1461L7.44986 10.1463C8.78093 9.07204 9.77098 7.64721 10.293 6.03575C10.5835 5.13916 10.7216 4.20787 10.7064 3.27759C13.6384 4.0992 15.3572 6.47871 15.3572 9.2272C15.3572 10.8743 14.4277 12.5443 13.1375 13.6595C13.1332 13.6632 13.1282 13.6674 13.1226 13.6723C13.0653 13.7215 12.9433 13.8264 12.8432 13.9348C12.7534 14.0321 12.3926 14.4251 12.3873 15.0487C12.3818 15.6856 12.7495 16.2757 13.3247 16.5511C13.8516 16.8034 14.3286 16.6886 14.4995 16.6398C14.647 16.5977 14.7972 16.5328 14.856 16.5074C14.8616 16.505 14.8665 16.5029 14.8703 16.5012C16.03 16.0057 17.5671 14.9829 18.7466 12.9801C18.7861 14.5807 18.4958 16.2239 17.6143 17.6106L17.5905 17.6481L17.5689 17.687C17.124 18.4881 16.4978 19.1909 15.7307 19.7422C14.9634 20.2937 14.075 20.6792 13.1279 20.8679C12.1807 21.0566 11.2014 21.043 10.2605 20.8283C9.31976 20.6136 8.44393 20.2039 7.69415 19.6319C6.94455 19.0601 6.34024 18.3409 5.91993 17.5285C5.49975 16.7163 5.27256 15.8287 5.2516 14.9281C5.23063 14.0276 5.4163 13.1317 5.79784 12.3033C6.17583 11.4825 6.73809 10.7455 7.44956 10.1461ZM6.27293 9.18238C5.494 9.88698 4.86888 10.7345 4.43538 11.6758C3.959 12.7102 3.72569 13.8325 3.752 14.963C3.77832 16.0936 4.06361 17.2047 4.58765 18.2177C5.1117 19.2307 5.86167 20.1206 6.78436 20.8245C7.70707 21.5284 8.7799 22.0289 9.92681 22.2907C11.0737 22.5524 12.2666 22.5689 13.4209 22.339C14.5752 22.1091 15.6627 21.6384 16.6061 20.9603C17.5496 20.2822 18.326 19.4133 18.8803 18.4153C20.5678 15.7603 20.4113 12.5048 19.9088 10.2019C19.8188 9.78958 19.7177 9.40776 19.6141 9.0654C19.5302 8.78798 19.4446 8.53647 19.3619 8.31562C19.328 8.22486 19.2945 8.13928 19.2618 8.0592C19.2434 8.0141 19.2253 7.97075 19.2075 7.92921C19.1535 7.80338 19.1265 7.74047 19.0697 7.71722C19.024 7.69858 18.9615 7.7068 18.9223 7.7366C18.8733 7.77377 18.8625 7.84857 18.8408 7.99817C18.8362 8.02973 18.8316 8.06117 18.8268 8.09247C18.8082 8.21593 18.7884 8.33733 18.7674 8.45671C18.7254 8.69597 18.6789 8.92708 18.6283 9.15033C18.548 9.50455 18.4574 9.83896 18.3579 10.1546C18.325 10.2591 18.2911 10.3615 18.2564 10.4618C17.5008 12.6429 16.3179 13.8755 15.294 14.5674C14.9775 14.7812 14.6763 14.9434 14.4075 15.066C14.3944 15.0719 14.3814 15.0778 14.3684 15.0836C14.3389 15.0968 14.3097 15.1096 14.281 15.1218C14.1161 15.1923 14.0337 15.2275 13.9725 15.1982C13.9226 15.1743 13.8867 15.1168 13.8872 15.0615C13.8878 14.9936 13.9646 14.9272 14.1183 14.7943C14.1239 14.7895 14.1294 14.7847 14.1349 14.7799C14.1567 14.761 14.1785 14.7419 14.2002 14.7226C14.4431 14.5069 14.6772 14.2728 14.8989 14.0229C15.8564 12.9438 16.5831 11.5694 16.7945 10.0966C16.8356 9.81005 16.8572 9.51976 16.8572 9.2272C16.8572 5.56923 14.4048 2.51502 10.5302 1.69101C10.516 1.688 10.5019 1.68502 10.4877 1.68207C10.3157 1.64631 10.1409 1.61494 9.96341 1.58808C9.73702 1.55383 9.50625 1.52694 9.27128 1.5077C9.16028 1.49862 9.10478 1.49407 9.06622 1.51435C9.03216 1.53225 9.00682 1.56173 8.99423 1.59811C8.97998 1.63931 8.99346 1.69642 9.02042 1.81066C9.09108 2.11004 9.14171 2.41256 9.17233 2.71642C9.18181 2.81049 9.18937 2.90469 9.19501 2.99897C9.19517 3.00153 9.19532 3.00408 9.19547 3.00664C9.24623 3.87016 9.13619 4.73964 8.86606 5.57345C8.46612 6.80797 7.73085 7.91611 6.7382 8.78532C6.66334 8.85087 6.58701 8.91507 6.50925 8.97786C6.50917 8.97792 6.5091 8.97798 6.50902 8.97804C6.50862 8.97837 6.50821 8.9787 6.5078 8.97903L6.50859 8.97752C6.50819 8.97785 6.50779 8.97819 6.50739 8.97852C6.50731 8.97858 6.50724 8.97864 6.50717 8.9787C6.42763 9.04518 6.34954 9.11309 6.27293 9.18238Z" fill="#0F0F0F"/>
</g>
</svg>

<svg xmlns="http://www.w3.org/2000/svg" width="24" height="24" viewBox="0 0 24 24">
  <g class="ic-fire">
    <path fill-rule="evenodd" d="M7.45 10.146a8.758 8.758 0 0 0 2.843-4.11c.29-.897.429-1.828.413-2.758 2.932.821 4.651 3.2 4.651 5.95 0 1.646-.93 3.316-2.22 4.431l-.014.013c-.058.05-.18.154-.28.263-.09.097-.45.49-.456 1.114a1.656 1.656 0 0 0 .938 1.502 1.652 1.652 0 0 0 1.175.089c.147-.042.297-.107.356-.133l.014-.006c1.16-.495 2.697-1.518 3.877-3.52.04 1.6-.251 3.243-1.133 4.63l-.024.037-.021.039a6.307 6.307 0 0 1-1.838 2.055 6.705 6.705 0 0 1-2.603 1.126 6.87 6.87 0 0 1-2.867-.04 6.682 6.682 0 0 1-2.567-1.196 6.28 6.28 0 0 1-1.774-2.104 5.957 5.957 0 0 1-.668-2.6c-.021-.9.164-1.796.546-2.625.378-.82.94-1.558 1.652-2.157Zm-1.177-.964a7.72 7.72 0 0 0-1.838 2.494 7.439 7.439 0 0 0-.683 3.287 7.457 7.457 0 0 0 .836 3.255 7.78 7.78 0 0 0 2.196 2.607 8.183 8.183 0 0 0 3.143 1.466 8.371 8.371 0 0 0 3.494.048 8.203 8.203 0 0 0 3.185-1.379 7.808 7.808 0 0 0 2.274-2.545c1.688-2.655 1.531-5.91 1.029-8.213-.09-.412-.191-.794-.295-1.137a12.313 12.313 0 0 0-.352-1.006 8.117 8.117 0 0 0-.055-.13c-.053-.126-.08-.189-.137-.212a.16.16 0 0 0-.148.02c-.049.037-.06.112-.081.261a12.76 12.76 0 0 1-.074.459c-.042.239-.088.47-.139.693a12.619 12.619 0 0 1-.372 1.312c-.755 2.18-1.938 3.414-2.962 4.105a6.132 6.132 0 0 1-.886.499l-.04.018-.087.038c-.165.07-.247.105-.309.076a.157.157 0 0 1-.085-.136c0-.068.078-.135.231-.268a2.457 2.457 0 0 0 .082-.071c.243-.216.477-.45.699-.7.957-1.08 1.684-2.454 1.896-3.926.04-.287.062-.577.062-.87 0-3.658-2.452-6.712-6.327-7.536a10.708 10.708 0 0 0-.567-.103 10.181 10.181 0 0 0-.692-.08c-.11-.01-.166-.014-.205.006a.149.149 0 0 0-.072.084c-.014.041 0 .098.026.213a6.996 6.996 0 0 1-.154 3.762A7.24 7.24 0 0 1 6.51 8.978l-.001.001v-.001c-.08.067-.158.135-.235.204Z" class="Icon"/>
  </g>
</svg>
